X: 46
T: When the Work's All Done This Fall
I: When the Work's All Done This Fall	S-W	C	square
C: S-W
M: C|
Z: Transcribed to abc by Mary Lou Knack
R: square
K: C
ED|: "C"C2 C2 E2 G2| c2 c4 Bc| "D7"d2 d2 d2 c2| A6 c2|
 "G"B2 B2 B3 B| B2 B4 A2|1 "G" G2 G2 A2 G2| "C"E6 D2 :|2 "C"G2 F2 E2 D2| C6 |]
% %text 9/1/98.  Formerly R-26
#include "LeftHeader.h"
% %text intentional blank so that each new letter is on the front of a page


% ---------- X ----------

% ---------- Y ----------

#include "RightHeader.h"
$SmallLMargin
$SmallRMargin
% %scale .9
